app/images/icon/icon-svg/location.svg

<svg width="20" height="30" viewBox="0 0 20 30" fill="none" xmlns="http://www.w3.org/2000/svg">
<path d="M19.5275 7.22578C19.4242 6.83847 19.2143 6.42579 19.0591 6.06447C17.2014 1.59998 13.1424 0 9.8649 0C5.47743 0 0.64515 2.94199 0 9.00612V10.2451C0 10.2968 0.0178196 10.7612 0.0431315 10.9935C0.404788 13.8836 2.68522 16.955 4.38835 19.845C6.22066 22.9414 8.12196 25.9873 10.0056 29.032C11.1671 27.0451 12.3245 25.0321 13.4595 23.0966C13.7689 22.5286 14.128 21.961 14.4377 21.4188C14.6441 21.0578 15.0384 20.6969 15.2185 20.361C17.0508 17.0064 20 13.6258 20 10.2967V8.92904C20.0001 8.56812 19.5527 7.3036 19.5275 7.22578ZM9.94522 13.4452C8.65553 13.4452 7.24387 12.8003 6.54708 11.0194C6.44327 10.7359 6.45164 10.1678 6.45164 10.1157V9.31573C6.45164 7.04536 8.3794 6.0129 10.0565 6.0129C12.1211 6.0129 13.7179 7.66472 13.7179 9.72936C13.7179 11.7939 12.0099 13.4452 9.94522 13.4452Z" fill="#FFC59E"/>
</svg>

<svg width="20" height="30" fill="none" xmlns="http://www.w3.org/2000/svg"><path d="M19.527 7.226c-.103-.388-.313-.8-.468-1.162C17.201 1.6 13.142 0 9.865 0 5.477 0 .645 2.942 0 9.006v1.24c0 .05.018.515.043.747.362 2.89 2.642 5.962 4.345 8.852 1.833 3.096 3.734 6.142 5.618 9.187 1.161-1.987 2.319-4 3.454-5.935.309-.568.668-1.136.978-1.678.206-.361.6-.722.78-1.058C17.052 17.006 20 13.626 20 10.297V8.929c0-.36-.447-1.625-.473-1.703zm-9.582 6.22c-1.29 0-2.701-.646-3.398-2.427-.104-.283-.095-.851-.095-.903v-.8c0-2.27 1.927-3.303 3.604-3.303 2.065 0 3.662 1.652 3.662 3.716 0 2.065-1.708 3.716-3.773 3.716z" fill="#FFC59E"/></svg>
